X: 17603
T: Hogmanay, The
R: mazurka
M: 3/4
K: Gmajor
|:d2 d>B G>B|d2 d>B G>B|c2 c>d e>c|d2 d>B G>B|
c2 c>d e>c|B2 B>c d>B|A2 A>B c>d|1 d>e d>c B>c:|2 e>d c>d e>f||
|:g2 g>a b>g|a2f2d2|e2 e>f g>e|d2c2B2|
c2 c>d e>c|B2 B>c d>B|1 c2 c>d e>c|d2e2f2:|2 A2 A>B c>d|d>e d>c B>c||

